X: 36
M:4/4
L:1/8
K:G
d/c/ | BGGB cAAc | BGGc Bdgd |
dBdg eceg | fdef gage |
dBdg eceg | fdef g2 fe | dBTB2 ec Tc2 |
dB TB2 AFDd | edef gage | dBcA G3 :|


